X: 1
T: Reel Lindbergh
O: Qu\'ebec
S: Fortina Malouin
R: reel
Z: 2012 John Chambers <jc:trillian.mit.edu>
M: 2/4
L: 1/16
K: D
ag |\
"D"fdAF DFAF | AFBF A2ef | "A7"gfg{f}e cABc | "D"dcdf "(A7)"ba^ga |
"D"fdAF D{E}FAF | AFBF A2ef | "A7"gfg{f}e cABc |1 "D"df=fe d^f :|2 "D"df"A7"ec "D"d3 |]
|: e |\
"D"fAAf gA^gA | a3a/b/ "(Bm)"aefa | "Em"gfge "A7"cABc | "D"dcdf "A7"bage |
"D"fAAf gA^gA | a3a/b/ "(Bm)"aefa | "Em"gfge "A7"cABc |1 "D"df"A7"ec "D"d3 :|2 "D"df"A7"ec "D"df |]
